; generated by Slic3r Prusa Edition 1.41.2+win64 on 2019-03-07 at 20:17:08

; 

; external perimeters extrusion width = 0.45mm
; perimeters extrusion width = 0.45mm
; infill extrusion width = 0.45mm
; solid infill extrusion width = 0.45mm
; top infill extrusion width = 0.40mm
; first layer extrusion width = 0.42mm

M73 P0 R99
M73 Q0 S100
M201 X1000 Y1000 Z1000 E5000 ; sets maximum accelerations, mm/sec^2
M203 X200 Y200 Z12 E120 ; sets maximum feedrates, mm/sec
M204 P1250 R1250 T1250 ; sets acceleration (P, T) and retract acceleration (R), mm/sec^2
M205 X8.00 Y8.00 Z0.40 E1.50 ; sets the jerk limits, mm/sec
M205 S0 T0 ; sets the minimum extruding and travel feed rate, mm/sec
M107
M115 U3.5.1 ; tell printer latest fw version
M83  ; extruder relative mode
M104 S215 ; set extruder temp
M140 S60 ; set bed temp
M190 S60 ; wait for bed temp
M109 S215 ; wait for extruder temp
G28 W ; home all without mesh bed level
G80 ; mesh bed leveling
G1 Y-3.0 F1000.0 ; go outside print area
G92 E0.0
G1 X60.0 E9.0  F1000.0 ; intro line
M73 Q0 S100
M73 P0 R99
G1 X100.0 E12.5  F1000.0 ; intro line
G92 E0.0
M221 S95
M900 K30; Filament gcode
G21 ; set units to millimeters
G90 ; use absolute coordinates
M83 ; use relative distances for extrusion
;BEFORE_LAYER_CHANGE
G92 E0.0
;0.2


G1 E-0.80000 F2100.00000
G1 Z0.600 F10800.000
;AFTER_LAYER_CHANGE
;0.2
G1 X75.557 Y71.725
G1 Z0.200
G1 E0.80000 F2100.00000
M204 S1000
G1 F1200
G1 X76.180 Y71.631 E0.01976
G1 X173.814 Y71.631 E3.06122
G1 X174.640 Y71.795 E0.02642
G1 X175.344 Y72.259 E0.02642
G1 X175.820 Y72.954 E0.02642
G1 X175.998 Y73.781 E0.02653
G1 X175.998 Y136.213 E1.95750
G1 X175.927 Y136.737 E0.01658
G1 X175.730 Y137.231 E0.01669
G1 X175.422 Y137.661 E0.01658
G1 X175.016 Y138.006 E0.01669
G1 X174.443 Y138.275 E0.01987
G1 X173.820 Y138.369 E0.01976
G1 X76.175 Y138.368 E3.06156
G1 X75.647 Y138.300 E0.01669
G1 X75.148 Y138.105 E0.01680
G1 X74.712 Y137.794 E0.01680
G1 X74.364 Y137.386 E0.01680
G1 X74.096 Y136.816 E0.01976
G1 X74.002 Y136.193 E0.01976
G1 X74.002 Y73.802 E1.95624
G1 X74.071 Y73.274 E0.01669
G1 X74.267 Y72.775 E0.01680
G1 X74.576 Y72.342 E0.01669
G1 X74.984 Y71.994 E0.01680
G1 X75.503 Y71.750 E0.01799
; PURGING FINISHED
G1 F8640
G1 X76.180 Y71.631 E-0.15882
G1 X78.784 Y71.631 E-0.60118
G1 E-0.04000 F2100.00000
G1 Z0.800 F10800.000
G1 X128.587 Y74.407
G1 Z0.200
G1 E0.80000 F2100.00000
G1 F1200
G1 X173.223 Y74.407 E1.39953
G1 X173.223 Y135.593 E1.91844
G1 X128.587 Y135.593 E1.39953
G1 X128.587 Y74.467 E1.91656
G1 X128.210 Y74.030 F10800.000
G1 F1200
G1 X173.600 Y74.030 E1.42317
G1 X173.600 Y135.970 E1.94209
G1 X128.210 Y135.970 E1.42317
G1 X128.210 Y74.090 E1.94020
G1 X128.591 Y74.153 F10800.000
G1 F8640
G1 X131.501 Y74.086 E-0.76000
G1 E-0.04000 F2100.00000
G1 Z0.800 F10800.000
G1 X173.110 Y75.285
G1 Z0.200
G1 E0.80000 F2100.00000
G1 F1200
G1 X172.514 Y74.690 E0.02651
G1 X171.979 Y74.690 E0.01684
G1 X172.940 Y75.651 E0.04278
G1 X172.940 Y76.186 E0.01684
G1 X171.444 Y74.690 E0.06660
G1 X170.909 Y74.690 E0.01684
G1 X172.940 Y76.721 E0.09042
G1 X172.940 Y77.257 E0.01684
G1 X170.373 Y74.690 E0.11424
G1 X169.838 Y74.690 E0.01684
G1 X172.940 Y77.792 E0.13806
G1 X172.940 Y78.327 E0.01684
G1 X169.303 Y74.690 E0.16189
G1 X168.767 Y74.690 E0.01684
G1 X172.940 Y78.862 E0.18571
G1 X172.940 Y79.398 E0.01684
G1 X168.232 Y74.690 E0.20953
G1 X167.697 Y74.690 E0.01684
G1 X172.940 Y79.933 E0.23335
G1 X172.940 Y80.468 E0.01684
G1 X167.162 Y74.690 E0.25717
G1 X166.626 Y74.690 E0.01684
G1 X172.940 Y81.004 E0.28100
G1 X172.940 Y81.539 E0.01684
G1 X166.091 Y74.690 E0.30482
G1 X165.556 Y74.690 E0.01684
G1 X172.940 Y82.074 E0.32864
G1 X172.940 Y82.609 E0.01684
G1 X165.021 Y74.690 E0.35246
G1 X164.485 Y74.690 E0.01684
G1 X172.940 Y83.145 E0.37629
G1 X172.940 Y83.680 E0.01684
G1 X163.950 Y74.690 E0.40011
G1 X163.415 Y74.690 E0.01684
G1 X172.940 Y84.215 E0.42393
G1 X172.940 Y84.750 E0.01684
G1 X162.880 Y74.690 E0.44775
G1 X162.344 Y74.690 E0.01684
G1 X172.940 Y85.286 E0.47157
G1 X172.940 Y85.821 E0.01684
G1 X161.809 Y74.690 E0.49540
G1 X161.274 Y74.690 E0.01684
G1 X172.940 Y86.356 E0.51922
G1 X172.940 Y86.891 E0.01684
G1 X160.739 Y74.690 E0.54304
G1 X160.203 Y74.690 E0.01684
G1 X172.940 Y87.427 E0.56686
G1 X172.940 Y87.962 E0.01684
G1 X159.668 Y74.690 E0.59068
G1 X159.133 Y74.690 E0.01684
G1 X172.940 Y88.497 E0.61451
G1 X172.940 Y89.032 E0.01684
G1 X158.598 Y74.690 E0.63833
G1 X158.062 Y74.690 E0.01684
G1 X172.940 Y89.568 E0.66215
G1 X172.940 Y90.103 E0.01684
G1 X157.527 Y74.690 E0.68597
M73 Q1 S99
M73 P1 R98
G1 X156.992 Y74.690 E0.01684
G1 X172.940 Y90.638 E0.70979
G1 X172.940 Y91.173 E0.01684
G1 X156.457 Y74.690 E0.73362
G1 X155.921 Y74.690 E0.01684
G1 X172.940 Y91.709 E0.75744
G1 X172.940 Y92.244 E0.01684
G1 X155.386 Y74.690 E0.78126
G1 X154.851 Y74.690 E0.01684
G1 X172.940 Y92.779 E0.80508
G1 X172.940 Y93.314 E0.01684
G1 X154.316 Y74.690 E0.82891
G1 X153.780 Y74.690 E0.01684
G1 X172.940 Y93.850 E0.85273
G1 X172.940 Y94.385 E0.01684
G1 X153.245 Y74.690 E0.87655
G1 X152.710 Y74.690 E0.01684
G1 X172.940 Y94.920 E0.90037
G1 X172.940 Y95.455 E0.01684
G1 X152.175 Y74.690 E0.92419
G1 X151.639 Y74.690 E0.01684
G1 X172.940 Y95.991 E0.94802
G1 X172.940 Y96.526 E0.01684
G1 X151.104 Y74.690 E0.97184
G1 X150.569 Y74.690 E0.01684
G1 X172.940 Y97.061 E0.99566
G1 X172.940 Y97.596 E0.01684
G1 X150.034 Y74.690 E1.01948
G1 X149.498 Y74.690 E0.01684
G1 X172.940 Y98.132 E1.04330
G1 X172.940 Y98.667 E0.01684
G1 X148.963 Y74.690 E1.06713
G1 X148.428 Y74.690 E0.01684
G1 X172.940 Y99.202 E1.09095
G1 X172.940 Y99.737 E0.01684
G1 X147.893 Y74.690 E1.11477
G1 X147.357 Y74.690 E0.01684
G1 X172.940 Y100.273 E1.13859
G1 X172.940 Y100.808 E0.01684
G1 X146.822 Y74.690 E1.16241
G1 X146.287 Y74.690 E0.01684
G1 X172.940 Y101.343 E1.18624
G1 X172.940 Y101.878 E0.01684
G1 X145.752 Y74.690 E1.21006
G1 X145.216 Y74.690 E0.01684
G1 X172.940 Y102.414 E1.23388
G1 X172.940 Y102.949 E0.01684
G1 X144.681 Y74.690 E1.25770
G1 X144.146 Y74.690 E0.01684
G1 X172.940 Y103.484 E1.28152
G1 X172.940 Y104.019 E0.01684
G1 X143.611 Y74.690 E1.30535
G1 X143.075 Y74.690 E0.01684
G1 X172.940 Y104.555 E1.32917
G1 X172.940 Y105.090 E0.01684
G1 X142.540 Y74.690 E1.35299
G1 X142.005 Y74.690 E0.01684
G1 X172.940 Y105.625 E1.37681
G1 X172.940 Y106.160 E0.01684
G1 X141.470 Y74.690 E1.40064
G1 X140.934 Y74.690 E0.01684
G1 X172.940 Y106.696 E1.42446
G1 X172.940 Y107.231 E0.01684
G1 X140.399 Y74.690 E1.44828
G1 X139.864 Y74.690 E0.01684
G1 X172.940 Y107.766 E1.47210
G1 X172.940 Y108.301 E0.01684
G1 X139.329 Y74.690 E1.49592
M73 Q2 S98
M73 P2 R97
G1 X138.793 Y74.690 E0.01684
G1 X172.940 Y108.837 E1.51975
G1 X172.940 Y109.372 E0.01684
G1 X138.258 Y74.690 E1.54357
G1 X137.723 Y74.690 E0.01684
G1 X172.940 Y109.907 E1.56739
G1 X172.940 Y110.442 E0.01684
G1 X137.188 Y74.690 E1.59121
G1 X136.652 Y74.690 E0.01684
G1 X172.940 Y110.978 E1.61503
G1 X172.940 Y111.513 E0.01684
G1 X136.117 Y74.690 E1.63886
G1 X135.582 Y74.690 E0.01684
G1 X172.940 Y112.048 E1.66268
G1 X172.940 Y112.583 E0.01684
G1 X135.047 Y74.690 E1.68650
G1 X134.511 Y74.690 E0.01684
G1 X172.940 Y113.119 E1.71032
G1 X172.940 Y113.654 E0.01684
G1 X133.976 Y74.690 E1.73414
G1 X133.441 Y74.690 E0.01684
G1 X172.940 Y114.189 E1.75797
G1 X172.940 Y114.724 E0.01684
G1 X132.906 Y74.690 E1.78179
G1 X132.370 Y74.690 E0.01684
G1 X172.940 Y115.260 E1.80561
G1 X172.940 Y115.795 E0.01684
G1 X131.835 Y74.690 E1.82943
G1 X131.300 Y74.690 E0.01684
G1 X172.940 Y116.330 E1.85325
G1 X172.940 Y116.865 E0.01684
G1 X130.765 Y74.690 E1.87708
G1 X130.229 Y74.690 E0.01684
G1 X172.940 Y117.401 E1.90090
G1 X172.940 Y117.936 E0.01684
G1 X129.694 Y74.690 E1.92472
G1 X129.159 Y74.690 E0.01684
G1 X172.940 Y118.471 E1.94854
G1 X172.940 Y119.006 E0.01684
G1 X128.870 Y74.936 E1.96141
G1 X128.870 Y75.471 E0.01684
G1 X172.940 Y119.542 E1.96141
G1 X172.940 Y120.077 E0.01684
G1 X128.870 Y76.007 E1.96141
M73 Q3 S97
M73 P3 R96
G1 X128.870 Y76.542 E0.01684
G1 X172.940 Y120.612 E1.96141
G1 X172.940 Y121.147 E0.01684
G1 X128.870 Y77.077 E1.96141
G1 X128.870 Y77.612 E0.01684
G1 X172.940 Y121.683 E1.96141
G1 X172.940 Y122.218 E0.01684
G1 X128.870 Y78.148 E1.96141
G1 X128.870 Y78.683 E0.01684
G1 X172.940 Y122.753 E1.96141
G1 X172.940 Y123.288 E0.01684
G1 X128.870 Y79.218 E1.96141
G1 X128.870 Y79.753 E0.01684
G1 X172.940 Y123.824 E1.96141
G1 X172.940 Y124.359 E0.01684
G1 X128.870 Y80.289 E1.96141
G1 X128.870 Y80.824 E0.01684
G1 X172.940 Y124.894 E1.96141
G1 X172.940 Y125.429 E0.01684
G1 X128.870 Y81.359 E1.96141
G1 X128.870 Y81.894 E0.01684
G1 X172.940 Y125.965 E1.96141
G1 X172.940 Y126.500 E0.01684
G1 X128.870 Y82.430 E1.96141
G1 X128.870 Y82.965 E0.01684
G1 X172.940 Y127.035 E1.96141
G1 X172.940 Y127.570 E0.01684
G1 X128.870 Y83.500 E1.96141
G1 X128.870 Y84.035 E0.01684
G1 X172.940 Y128.106 E1.96141
G1 X172.940 Y128.641 E0.01684
G1 X128.870 Y84.571 E1.96141
G1 X128.870 Y85.106 E0.01684
G1 X172.940 Y129.176 E1.96141
G1 X172.940 Y129.711 E0.01684
G1 X128.870 Y85.641 E1.96141
G1 X128.870 Y86.176 E0.01684
G1 X172.940 Y130.247 E1.96141
G1 X172.940 Y130.782 E0.01684
G1 X128.870 Y86.712 E1.96141
M73 Q4 S96
M73 P4 R95
G1 X128.870 Y87.247 E0.01684
G1 X172.940 Y131.317 E1.96141
G1 X172.940 Y131.852 E0.01684
G1 X128.870 Y87.782 E1.96141
G1 X128.870 Y88.317 E0.01684
G1 X172.940 Y132.388 E1.96141
G1 X172.940 Y132.923 E0.01684
G1 X128.870 Y88.853 E1.96141
G1 X128.870 Y89.388 E0.01684
G1 X172.940 Y133.458 E1.96141
G1 X172.940 Y133.993 E0.01684
G1 X128.870 Y89.923 E1.96141
G1 X128.870 Y90.458 E0.01684
G1 X172.940 Y134.529 E1.96141
G1 X172.940 Y135.064 E0.01684
G1 X128.870 Y90.994 E1.96141
G1 X128.870 Y91.529 E0.01684
G1 X172.651 Y135.310 E1.94854
G1 X172.116 Y135.310 E0.01684
G1 X128.870 Y92.064 E1.92472
G1 X128.870 Y92.599 E0.01684
G1 X171.581 Y135.310 E1.90090
G1 X171.045 Y135.310 E0.01684
G1 X128.870 Y93.135 E1.87708
G1 X128.870 Y93.670 E0.01684
G1 X170.510 Y135.310 E1.85325
G1 X169.975 Y135.310 E0.01684
G1 X128.870 Y94.205 E1.82943
G1 X128.870 Y94.740 E0.01684
G1 X169.440 Y135.310 E1.80561
G1 X168.904 Y135.310 E0.01684
G1 X128.870 Y95.276 E1.78179
G1 X128.870 Y95.811 E0.01684
G1 X168.369 Y135.310 E1.75797
G1 X167.834 Y135.310 E0.01684
G1 X128.870 Y96.346 E1.73414
G1 X128.870 Y96.881 E0.01684
G1 X167.299 Y135.310 E1.71032
G1 X166.763 Y135.310 E0.01684
G1 X128.870 Y97.417 E1.68650
M73 Q5 S95
M73 P5 R94
G1 X128.870 Y97.952 E0.01684
G1 X166.228 Y135.310 E1.66268
G1 X165.693 Y135.310 E0.01684
G1 X128.870 Y98.487 E1.63886
G1 X128.870 Y99.022 E0.01684
G1 X165.158 Y135.310 E1.61503
G1 X164.622 Y135.310 E0.01684
G1 X128.870 Y99.558 E1.59121
G1 X128.870 Y100.093 E0.01684
G1 X164.087 Y135.310 E1.56739
G1 X163.552 Y135.310 E0.01684
G1 X128.870 Y100.628 E1.54357
G1 X128.870 Y101.163 E0.01684
G1 X163.017 Y135.310 E1.51975
G1 X162.481 Y135.310 E0.01684
G1 X128.870 Y101.699 E1.49592
G1 X128.870 Y102.234 E0.01684
G1 X161.946 Y135.310 E1.47210
G1 X161.411 Y135.310 E0.01684
G1 X128.870 Y102.769 E1.44828
G1 X128.870 Y103.304 E0.01684
G1 X160.876 Y135.310 E1.42446
G1 X160.340 Y135.310 E0.01684
G1 X128.870 Y103.840 E1.40063
G1 X128.870 Y104.375 E0.01684
G1 X159.805 Y135.310 E1.37681
G1 X159.270 Y135.310 E0.01684
G1 X128.870 Y104.910 E1.35299
G1 X128.870 Y105.445 E0.01684
G1 X158.735 Y135.310 E1.32917
G1 X158.199 Y135.310 E0.01684
G1 X128.870 Y105.981 E1.30535
G1 X128.870 Y106.516 E0.01684
G1 X157.664 Y135.310 E1.28152
G1 X157.129 Y135.310 E0.01684
G1 X128.870 Y107.051 E1.25770
G1 X128.870 Y107.586 E0.01684
G1 X156.594 Y135.310 E1.23388
G1 X156.058 Y135.310 E0.01684
G1 X128.870 Y108.122 E1.21006
G1 X128.870 Y108.657 E0.01684
G1 X155.523 Y135.310 E1.18624
G1 X154.988 Y135.310 E0.01684
G1 X128.870 Y109.192 E1.16241
G1 X128.870 Y109.727 E0.01684
G1 X154.453 Y135.310 E1.13859
G1 X153.917 Y135.310 E0.01684
G1 X128.870 Y110.263 E1.11477
G1 X128.870 Y110.798 E0.01684
G1 X153.382 Y135.310 E1.09095
G1 X152.847 Y135.310 E0.01684
G1 X128.870 Y111.333 E1.06713
G1 X128.870 Y111.868 E0.01684
G1 X152.312 Y135.310 E1.04330
G1 X151.776 Y135.310 E0.01684
G1 X128.870 Y112.404 E1.01948
M73 Q6 S94
M73 P6 R93
G1 X128.870 Y112.939 E0.01684
G1 X151.241 Y135.310 E0.99566
G1 X150.706 Y135.310 E0.01684
G1 X128.870 Y113.474 E0.97184
G1 X128.870 Y114.009 E0.01684
G1 X150.171 Y135.310 E0.94802
G1 X149.635 Y135.310 E0.01684
G1 X128.870 Y114.545 E0.92419
G1 X128.870 Y115.080 E0.01684
G1 X149.100 Y135.310 E0.90037
G1 X148.565 Y135.310 E0.01684
G1 X128.870 Y115.615 E0.87655
G1 X128.870 Y116.150 E0.01684
G1 X148.030 Y135.310 E0.85273
G1 X147.494 Y135.310 E0.01684
G1 X128.870 Y116.686 E0.82890
G1 X128.870 Y117.221 E0.01684
G1 X146.959 Y135.310 E0.80508
G1 X146.424 Y135.310 E0.01684
G1 X128.870 Y117.756 E0.78126
G1 X128.870 Y118.291 E0.01684
G1 X145.889 Y135.310 E0.75744
G1 X145.353 Y135.310 E0.01684
G1 X128.870 Y118.827 E0.73362
G1 X128.870 Y119.362 E0.01684
G1 X144.818 Y135.310 E0.70979
G1 X144.283 Y135.310 E0.01684
G1 X128.870 Y119.897 E0.68597
G1 X128.870 Y120.432 E0.01684
G1 X143.748 Y135.310 E0.66215
G1 X143.212 Y135.310 E0.01684
G1 X128.870 Y120.968 E0.63833
G1 X128.870 Y121.503 E0.01684
G1 X142.677 Y135.310 E0.61451
G1 X142.142 Y135.310 E0.01684
G1 X128.870 Y122.038 E0.59068
G1 X128.870 Y122.573 E0.01684
G1 X141.607 Y135.310 E0.56686
G1 X141.071 Y135.310 E0.01684
G1 X128.870 Y123.109 E0.54304
G1 X128.870 Y123.644 E0.01684
G1 X140.536 Y135.310 E0.51922
G1 X140.001 Y135.310 E0.01684
G1 X128.870 Y124.179 E0.49540
G1 X128.870 Y124.714 E0.01684
G1 X139.466 Y135.310 E0.47157
G1 X138.930 Y135.310 E0.01684
G1 X128.870 Y125.250 E0.44775
G1 X128.870 Y125.785 E0.01684
G1 X138.395 Y135.310 E0.42393
G1 X137.860 Y135.310 E0.01684
G1 X128.870 Y126.320 E0.40011
G1 X128.870 Y126.855 E0.01684
G1 X137.325 Y135.310 E0.37628
G1 X136.789 Y135.310 E0.01684
G1 X128.870 Y127.391 E0.35246
G1 X128.870 Y127.926 E0.01684
G1 X136.254 Y135.310 E0.32864
G1 X135.719 Y135.310 E0.01684
G1 X128.870 Y128.461 E0.30482
G1 X128.870 Y128.997 E0.01684
G1 X135.183 Y135.310 E0.28100
G1 X134.648 Y135.310 E0.01684
G1 X128.870 Y129.532 E0.25717
G1 X128.870 Y130.067 E0.01684
G1 X134.113 Y135.310 E0.23335
G1 X133.578 Y135.310 E0.01684
G1 X128.870 Y130.602 E0.20953
G1 X128.870 Y131.138 E0.01684
G1 X133.042 Y135.310 E0.18571
G1 X132.507 Y135.310 E0.01684
G1 X128.870 Y131.673 E0.16189
G1 X128.870 Y132.208 E0.01684
G1 X131.972 Y135.310 E0.13806
G1 X131.437 Y135.310 E0.01684
G1 X128.870 Y132.743 E0.11424
G1 X128.870 Y133.279 E0.01684
G1 X130.901 Y135.310 E0.09042
G1 X130.366 Y135.310 E0.01684
G1 X128.870 Y133.814 E0.06660
G1 X128.870 Y134.349 E0.01684
G1 X129.831 Y135.310 E0.04278
G1 X129.296 Y135.310 E0.01684
G1 X128.700 Y134.715 E0.02651
G1 F8640
G1 X129.296 Y135.310 E-0.19447
G1 X129.831 Y135.310 E-0.12359
G1 X128.870 Y134.349 E-0.31385
G1 X128.870 Y133.814 E-0.12359
G1 X128.884 Y133.828 E-0.00450
G1 E-0.04000 F2100.00000
G1 Z0.800 F10800.000
G1 X121.413 Y135.593
G1 Z0.200
G1 E0.80000 F2100.00000
G1 F1200
G1 X76.777 Y135.593 E1.39953
G1 X76.777 Y74.407 E1.91844
G1 X121.413 Y74.407 E1.39953
G1 X121.413 Y135.533 E1.91656
G1 X121.790 Y135.970 F10800.000
G1 F1200
G1 X76.400 Y135.970 E1.42317
G1 X76.400 Y74.030 E1.94209
G1 X121.790 Y74.030 E1.42317
G1 X121.790 Y135.910 E1.94020
G1 X121.409 Y135.847 F10800.000
G1 F8640
G1 X118.499 Y135.914 E-0.76000
G1 E-0.04000 F2100.00000
G1 Z0.800 F10800.000
G1 X76.890 Y134.715
G1 Z0.200
G1 E0.80000 F2100.00000
G1 F1200
G1 X77.486 Y135.310 E0.02651
G1 X78.021 Y135.310 E0.01684
G1 X77.060 Y134.349 E0.04278
G1 X77.060 Y133.814 E0.01684
G1 X78.556 Y135.310 E0.06660
G1 X79.091 Y135.310 E0.01684
G1 X77.060 Y133.279 E0.09042
G1 X77.060 Y132.743 E0.01684
G1 X79.627 Y135.310 E0.11424
G1 X80.162 Y135.310 E0.01684
G1 X77.060 Y132.208 E0.13806
G1 X77.060 Y131.673 E0.01684
G1 X80.697 Y135.310 E0.16189
G1 X81.232 Y135.310 E0.01684
G1 X77.060 Y131.138 E0.18571
G1 X77.060 Y130.602 E0.01684
G1 X81.768 Y135.310 E0.20953
M73 Q7 S93
M73 P7 R92
G1 X82.303 Y135.310 E0.01684
G1 X77.060 Y130.067 E0.23335
G1 X77.060 Y129.532 E0.01684
G1 X82.838 Y135.310 E0.25717
G1 X83.373 Y135.310 E0.01684
G1 X77.060 Y128.997 E0.28100
G1 X77.060 Y128.461 E0.01684
G1 X83.909 Y135.310 E0.30482
G1 X84.444 Y135.310 E0.01684
G1 X77.060 Y127.926 E0.32864
