; generated by Slic3r Prusa Edition 1.41.2+win64 on 2019-03-07 at 17:50:08

; 

; external perimeters extrusion width = 0.45mm
; perimeters extrusion width = 0.45mm
; infill extrusion width = 0.45mm
; solid infill extrusion width = 0.45mm
; top infill extrusion width = 0.40mm
; first layer extrusion width = 0.42mm

M73 P0 R106
M73 Q0 S107
M201 X1000 Y1000 Z1000 E5000 ; sets maximum accelerations, mm/sec^2
M203 X200 Y200 Z12 E120 ; sets maximum feedrates, mm/sec
M204 P1250 R1250 T1250 ; sets acceleration (P, T) and retract acceleration (R), mm/sec^2
M205 X8.00 Y8.00 Z0.40 E1.50 ; sets the jerk limits, mm/sec
M205 S0 T0 ; sets the minimum extruding and travel feed rate, mm/sec
M107
M115 U3.5.1 ; tell printer latest fw version
M83  ; extruder relative mode
M104 S215 ; set extruder temp
M140 S60 ; set bed temp
M190 S60 ; wait for bed temp
M109 S215 ; wait for extruder temp
G28 W ; home all without mesh bed level
G80 ; mesh bed leveling
G1 Y-3.0 F1000.0 ; go outside print area
G92 E0.0
G1 X60.0 E9.0  F1000.0 ; intro line
M73 Q0 S107
M73 P0 R106
G1 X100.0 E12.5  F1000.0 ; intro line
G92 E0.0
M221 S95
M900 K30; Filament gcode
G21 ; set units to millimeters
G90 ; use absolute coordinates
M83 ; use relative distances for extrusion
;BEFORE_LAYER_CHANGE
G92 E0.0
;0.2


G1 E-0.80000 F2100.00000
G1 Z0.600 F10800.000
;AFTER_LAYER_CHANGE
;0.2
G1 X100.179 Y63.562
G1 Z0.200
G1 E0.80000 F2100.00000
M204 S1000
G1 F1200
G1 X100.516 Y63.105 E0.01783
G1 X100.960 Y62.749 E0.01783
G1 X101.480 Y62.520 E0.01783
G1 X102.042 Y62.432 E0.01783
G1 X147.909 Y62.431 E1.43813
G1 X148.732 Y62.594 E0.02631
G1 X149.436 Y63.056 E0.02642
G1 X149.912 Y63.747 E0.02631
G1 X150.093 Y64.570 E0.02642
G1 X150.094 Y145.387 E2.53396
G1 X150.023 Y145.930 E0.01714
G1 X149.821 Y146.438 E0.01714
G1 X149.481 Y146.898 E0.01794
G1 X149.034 Y147.255 E0.01794
G1 X148.510 Y147.483 E0.01794
G1 X147.944 Y147.568 E0.01794
G1 X102.084 Y147.569 E1.43790
G1 X101.545 Y147.498 E0.01703
G1 X101.037 Y147.296 E0.01714
G1 X100.574 Y146.954 E0.01805
G1 X100.216 Y146.503 E0.01805
G1 X99.989 Y145.974 E0.01805
G1 X99.907 Y145.404 E0.01805
G1 X99.906 Y64.613 E2.53316
G1 X99.977 Y64.070 E0.01714
G1 X100.157 Y63.618 E0.01526
; PURGING FINISHED
G1 F8640
G1 X100.516 Y63.105 E-0.14472
G1 X100.960 Y62.749 E-0.13128
G1 X101.480 Y62.520 E-0.13128
G1 X102.042 Y62.432 E-0.13128
G1 X103.001 Y62.432 E-0.22144
G1 E-0.04000 F2100.00000
G1 Z0.800 F10800.000
G1 X102.682 Y65.207
G1 Z0.200
G1 E0.80000 F2100.00000
G1 F1200
G1 X147.318 Y65.207 E1.39953
G1 X147.318 Y144.793 E2.49536
G1 X102.682 Y144.793 E1.39953
G1 X102.682 Y65.267 E2.49348
G1 X102.305 Y64.830 F10800.000
G1 F1200
G1 X147.695 Y64.830 E1.42317
G1 X147.695 Y145.170 E2.51900
G1 X102.305 Y145.170 E1.42317
G1 X102.305 Y64.890 E2.51712
G1 X102.680 Y64.968 F10800.000
G1 F8640
G1 X105.596 Y64.886 E-0.76000
G1 E-0.04000 F2100.00000
G1 Z0.800 F10800.000
G1 X147.205 Y66.083
G1 Z0.200
G1 E0.80000 F2100.00000
G1 F1200
G1 X146.611 Y65.490 E0.02634
G1 X146.078 Y65.490 E0.01675
G1 X147.035 Y66.447 E0.04250
G1 X147.035 Y66.981 E0.01675
G1 X145.544 Y65.490 E0.06620
G1 X145.010 Y65.490 E0.01675
G1 X147.035 Y67.515 E0.08989
G1 X147.035 Y68.049 E0.01675
G1 X144.476 Y65.490 E0.11358
G1 X143.942 Y65.490 E0.01675
G1 X147.035 Y68.583 E0.13728
G1 X147.035 Y69.116 E0.01675
G1 X143.409 Y65.490 E0.16097
G1 X142.875 Y65.490 E0.01675
G1 X147.035 Y69.650 E0.18467
G1 X147.035 Y70.184 E0.01675
G1 X142.341 Y65.490 E0.20836
G1 X141.807 Y65.490 E0.01675
G1 X147.035 Y70.718 E0.23206
G1 X147.035 Y71.252 E0.01675
G1 X141.273 Y65.490 E0.25575
G1 X140.739 Y65.490 E0.01675
G1 X147.035 Y71.786 E0.27944
G1 X147.035 Y72.319 E0.01675
G1 X140.206 Y65.490 E0.30314
G1 X139.672 Y65.490 E0.01675
G1 X147.035 Y72.853 E0.32683
G1 X147.035 Y73.387 E0.01675
G1 X139.138 Y65.490 E0.35053
G1 X138.604 Y65.490 E0.01675
G1 X147.035 Y73.921 E0.37422
G1 X147.035 Y74.455 E0.01675
G1 X138.070 Y65.490 E0.39792
G1 X137.537 Y65.490 E0.01675
G1 X147.035 Y74.988 E0.42161
G1 X147.035 Y75.522 E0.01675
G1 X137.003 Y65.490 E0.44530
G1 X136.469 Y65.490 E0.01675
G1 X147.035 Y76.056 E0.46900
G1 X147.035 Y76.590 E0.01675
G1 X135.935 Y65.490 E0.49269
G1 X135.401 Y65.490 E0.01675
G1 X147.035 Y77.124 E0.51639
G1 X147.035 Y77.657 E0.01675
G1 X134.868 Y65.490 E0.54008
G1 X134.334 Y65.490 E0.01675
G1 X147.035 Y78.191 E0.56377
G1 X147.035 Y78.725 E0.01675
G1 X133.800 Y65.490 E0.58747
G1 X133.266 Y65.490 E0.01675
G1 X147.035 Y79.259 E0.61116
G1 X147.035 Y79.793 E0.01675
G1 X132.732 Y65.490 E0.63486
G1 X132.198 Y65.490 E0.01675
G1 X147.035 Y80.327 E0.65855
G1 X147.035 Y80.860 E0.01675
G1 X131.665 Y65.490 E0.68225
M73 Q0 S106
G1 X131.131 Y65.490 E0.01675
G1 X147.035 Y81.394 E0.70594
M73 P1 R105
G1 X147.035 Y81.928 E0.01675
G1 X130.597 Y65.490 E0.72963
G1 X130.063 Y65.490 E0.01675
G1 X147.035 Y82.462 E0.75333
G1 X147.035 Y82.996 E0.01675
G1 X129.529 Y65.490 E0.77702
G1 X128.996 Y65.490 E0.01675
G1 X147.035 Y83.529 E0.80072
G1 X147.035 Y84.063 E0.01675
G1 X128.462 Y65.490 E0.82441
G1 X127.928 Y65.490 E0.01675
G1 X147.035 Y84.597 E0.84811
G1 X147.035 Y85.131 E0.01675
G1 X127.394 Y65.490 E0.87180
G1 X126.860 Y65.490 E0.01675
G1 X147.035 Y85.665 E0.89549
G1 X147.035 Y86.198 E0.01675
G1 X126.327 Y65.490 E0.91919
G1 X125.793 Y65.490 E0.01675
G1 X147.035 Y86.732 E0.94288
G1 X147.035 Y87.266 E0.01675
G1 X125.259 Y65.490 E0.96658
G1 X124.725 Y65.490 E0.01675
G1 X147.035 Y87.800 E0.99027
G1 X147.035 Y88.334 E0.01675
G1 X124.191 Y65.490 E1.01397
G1 X123.657 Y65.490 E0.01675
G1 X147.035 Y88.868 E1.03766
G1 X147.035 Y89.401 E0.01675
G1 X123.124 Y65.490 E1.06135
G1 X122.590 Y65.490 E0.01675
G1 X147.035 Y89.935 E1.08505
G1 X147.035 Y90.469 E0.01675
G1 X122.056 Y65.490 E1.10874
G1 X121.522 Y65.490 E0.01675
G1 X147.035 Y91.003 E1.13244
G1 X147.035 Y91.537 E0.01675
G1 X120.988 Y65.490 E1.15613
G1 X120.455 Y65.490 E0.01675
G1 X147.035 Y92.070 E1.17983
G1 X147.035 Y92.604 E0.01675
G1 X119.921 Y65.490 E1.20352
G1 X119.387 Y65.490 E0.01675
G1 X147.035 Y93.138 E1.22721
G1 X147.035 Y93.672 E0.01675
G1 X118.853 Y65.490 E1.25091
G1 X118.319 Y65.490 E0.01675
G1 X147.035 Y94.206 E1.27460
G1 X147.035 Y94.739 E0.01675
G1 X117.786 Y65.490 E1.29830
G1 X117.252 Y65.490 E0.01675
G1 X147.035 Y95.273 E1.32199
G1 X147.035 Y95.807 E0.01675
G1 X116.718 Y65.490 E1.34568
G1 X116.184 Y65.490 E0.01675
G1 X147.035 Y96.341 E1.36938
G1 X147.035 Y96.875 E0.01675
G1 X115.650 Y65.490 E1.39307
G1 X115.116 Y65.490 E0.01675
G1 X147.035 Y97.409 E1.41677
G1 X147.035 Y97.942 E0.01675
G1 X114.583 Y65.490 E1.44046
G1 X114.049 Y65.490 E0.01675
G1 X147.035 Y98.476 E1.46416
G1 X147.035 Y99.010 E0.01675
G1 X113.515 Y65.490 E1.48785
M73 Q1 S105
G1 X112.981 Y65.490 E0.01675
G1 X147.035 Y99.544 E1.51154
M73 P1 R104
G1 X147.035 Y100.078 E0.01675
G1 X112.447 Y65.490 E1.53524
G1 X111.914 Y65.490 E0.01675
G1 X147.035 Y100.611 E1.55893
G1 X147.035 Y101.145 E0.01675
G1 X111.380 Y65.490 E1.58263
G1 X110.846 Y65.490 E0.01675
G1 X147.035 Y101.679 E1.60632
G1 X147.035 Y102.213 E0.01675
G1 X110.312 Y65.490 E1.63002
G1 X109.778 Y65.490 E0.01675
G1 X147.035 Y102.747 E1.65371
G1 X147.035 Y103.281 E0.01675
G1 X109.244 Y65.490 E1.67740
G1 X108.711 Y65.490 E0.01675
G1 X147.035 Y103.814 E1.70110
G1 X147.035 Y104.348 E0.01675
G1 X108.177 Y65.490 E1.72479
G1 X107.643 Y65.490 E0.01675
G1 X147.035 Y104.882 E1.74849
G1 X147.035 Y105.416 E0.01675
G1 X107.109 Y65.490 E1.77218
G1 X106.575 Y65.490 E0.01675
G1 X147.035 Y105.950 E1.79588
G1 X147.035 Y106.483 E0.01675
G1 X106.042 Y65.490 E1.81957
G1 X105.508 Y65.490 E0.01675
G1 X147.035 Y107.017 E1.84326
G1 X147.035 Y107.551 E0.01675
G1 X104.974 Y65.490 E1.86696
G1 X104.440 Y65.490 E0.01675
G1 X147.035 Y108.085 E1.89065
G1 X147.035 Y108.619 E0.01675
G1 X103.906 Y65.490 E1.91435
G1 X103.373 Y65.490 E0.01675
G1 X147.035 Y109.152 E1.93804
G1 X147.035 Y109.686 E0.01675
G1 X102.965 Y65.616 E1.95614
G1 X102.965 Y66.150 E0.01675
G1 X147.035 Y110.220 E1.95614
G1 X147.035 Y110.754 E0.01675
G1 X102.965 Y66.684 E1.95614
M73 Q2 S104
G1 X102.965 Y67.217 E0.01675
G1 X147.035 Y111.288 E1.95614
M73 P2 R103
G1 X147.035 Y111.822 E0.01675
G1 X102.965 Y67.751 E1.95614
G1 X102.965 Y68.285 E0.01675
G1 X147.035 Y112.355 E1.95614
G1 X147.035 Y112.889 E0.01675
G1 X102.965 Y68.819 E1.95614
G1 X102.965 Y69.353 E0.01675
G1 X147.035 Y113.423 E1.95614
G1 X147.035 Y113.957 E0.01675
G1 X102.965 Y69.887 E1.95614
G1 X102.965 Y70.420 E0.01675
G1 X147.035 Y114.491 E1.95614
G1 X147.035 Y115.024 E0.01675
G1 X102.965 Y70.954 E1.95614
G1 X102.965 Y71.488 E0.01675
G1 X147.035 Y115.558 E1.95614
G1 X147.035 Y116.092 E0.01675
G1 X102.965 Y72.022 E1.95614
G1 X102.965 Y72.556 E0.01675
G1 X147.035 Y116.626 E1.95614
G1 X147.035 Y117.160 E0.01675
G1 X102.965 Y73.089 E1.95614
G1 X102.965 Y73.623 E0.01675
G1 X147.035 Y117.693 E1.95614
G1 X147.035 Y118.227 E0.01675
G1 X102.965 Y74.157 E1.95614
G1 X102.965 Y74.691 E0.01675
G1 X147.035 Y118.761 E1.95614
G1 X147.035 Y119.295 E0.01675
G1 X102.965 Y75.225 E1.95614
G1 X102.965 Y75.758 E0.01675
G1 X147.035 Y119.829 E1.95614
G1 X147.035 Y120.363 E0.01675
G1 X102.965 Y76.292 E1.95614
G1 X102.965 Y76.826 E0.01675
G1 X147.035 Y120.896 E1.95614
G1 X147.035 Y121.430 E0.01675
G1 X102.965 Y77.360 E1.95614
M73 Q3 S103
G1 X102.965 Y77.894 E0.01675
G1 X147.035 Y121.964 E1.95614
M73 P3 R102
G1 X147.035 Y122.498 E0.01675
G1 X102.965 Y78.428 E1.95614
G1 X102.965 Y78.961 E0.01675
G1 X147.035 Y123.032 E1.95614
G1 X147.035 Y123.565 E0.01675
G1 X102.965 Y79.495 E1.95614
G1 X102.965 Y80.029 E0.01675
G1 X147.035 Y124.099 E1.95614
G1 X147.035 Y124.633 E0.01675
G1 X102.965 Y80.563 E1.95614
G1 X102.965 Y81.097 E0.01675
G1 X147.035 Y125.167 E1.95614
G1 X147.035 Y125.701 E0.01675
G1 X102.965 Y81.630 E1.95614
G1 X102.965 Y82.164 E0.01675
G1 X147.035 Y126.234 E1.95614
G1 X147.035 Y126.768 E0.01675
G1 X102.965 Y82.698 E1.95614
G1 X102.965 Y83.232 E0.01675
G1 X147.035 Y127.302 E1.95614
G1 X147.035 Y127.836 E0.01675
G1 X102.965 Y83.766 E1.95614
G1 X102.965 Y84.299 E0.01675
G1 X147.035 Y128.370 E1.95614
G1 X147.035 Y128.904 E0.01675
G1 X102.965 Y84.833 E1.95614
G1 X102.965 Y85.367 E0.01675
G1 X147.035 Y129.437 E1.95614
G1 X147.035 Y129.971 E0.01675
G1 X102.965 Y85.901 E1.95614
G1 X102.965 Y86.435 E0.01675
G1 X147.035 Y130.505 E1.95614
G1 X147.035 Y131.039 E0.01675
G1 X102.965 Y86.969 E1.95614
G1 X102.965 Y87.502 E0.01675
G1 X147.035 Y131.573 E1.95614
G1 X147.035 Y132.106 E0.01675
G1 X102.965 Y88.036 E1.95614
M73 Q4 S102
G1 X102.965 Y88.570 E0.01675
G1 X147.035 Y132.640 E1.95614
M73 P4 R101
G1 X147.035 Y133.174 E0.01675
G1 X102.965 Y89.104 E1.95614
G1 X102.965 Y89.638 E0.01675
G1 X147.035 Y133.708 E1.95614
G1 X147.035 Y134.242 E0.01675
G1 X102.965 Y90.171 E1.95614
G1 X102.965 Y90.705 E0.01675
G1 X147.035 Y134.775 E1.95614
G1 X147.035 Y135.309 E0.01675
G1 X102.965 Y91.239 E1.95614
G1 X102.965 Y91.773 E0.01675
G1 X147.035 Y135.843 E1.95614
G1 X147.035 Y136.377 E0.01675
G1 X102.965 Y92.307 E1.95614
G1 X102.965 Y92.840 E0.01675
G1 X147.035 Y136.911 E1.95614
G1 X147.035 Y137.445 E0.01675
G1 X102.965 Y93.374 E1.95614
G1 X102.965 Y93.908 E0.01675
G1 X147.035 Y137.978 E1.95614
G1 X147.035 Y138.512 E0.01675
G1 X102.965 Y94.442 E1.95614
G1 X102.965 Y94.976 E0.01675
G1 X147.035 Y139.046 E1.95614
G1 X147.035 Y139.580 E0.01675
G1 X102.965 Y95.510 E1.95614
G1 X102.965 Y96.043 E0.01675
G1 X147.035 Y140.114 E1.95614
G1 X147.035 Y140.647 E0.01675
G1 X102.965 Y96.577 E1.95614
G1 X102.965 Y97.111 E0.01675
G1 X147.035 Y141.181 E1.95614
G1 X147.035 Y141.715 E0.01675
G1 X102.965 Y97.645 E1.95614
G1 X102.965 Y98.179 E0.01675
G1 X147.035 Y142.249 E1.95614
G1 X147.035 Y142.783 E0.01675
G1 X102.965 Y98.712 E1.95614
M73 Q5 S101
G1 X102.965 Y99.246 E0.01675
G1 X147.035 Y143.317 E1.95614
M73 P5 R100
G1 X147.035 Y143.850 E0.01675
G1 X102.965 Y99.780 E1.95614
G1 X102.965 Y100.314 E0.01675
G1 X147.035 Y144.384 E1.95614
G1 X147.035 Y144.510 E0.00395
G1 X146.627 Y144.510 E0.01280
G1 X102.965 Y100.848 E1.93803
G1 X102.965 Y101.381 E0.01675
G1 X146.094 Y144.510 E1.91434
G1 X145.560 Y144.510 E0.01675
G1 X102.965 Y101.915 E1.89065
G1 X102.965 Y102.449 E0.01675
G1 X145.026 Y144.510 E1.86695
G1 X144.492 Y144.510 E0.01675
G1 X102.965 Y102.983 E1.84326
G1 X102.965 Y103.517 E0.01675
G1 X143.958 Y144.510 E1.81956
G1 X143.424 Y144.510 E0.01675
G1 X102.965 Y104.051 E1.79587
G1 X102.965 Y104.584 E0.01675
G1 X142.891 Y144.510 E1.77218
G1 X142.357 Y144.510 E0.01675
G1 X102.965 Y105.118 E1.74848
G1 X102.965 Y105.652 E0.01675
G1 X141.823 Y144.510 E1.72479
G1 X141.289 Y144.510 E0.01675
G1 X102.965 Y106.186 E1.70109
G1 X102.965 Y106.720 E0.01675
G1 X140.755 Y144.510 E1.67740
G1 X140.222 Y144.510 E0.01675
G1 X102.965 Y107.253 E1.65370
G1 X102.965 Y107.787 E0.01675
G1 X139.688 Y144.510 E1.63001
G1 X139.154 Y144.510 E0.01675
G1 X102.965 Y108.321 E1.60632
G1 X102.965 Y108.855 E0.01675
G1 X138.620 Y144.510 E1.58262
G1 X138.086 Y144.510 E0.01675
G1 X102.965 Y109.389 E1.55893
G1 X102.965 Y109.923 E0.01675
G1 X137.552 Y144.510 E1.53523
G1 X137.019 Y144.510 E0.01675
G1 X102.965 Y110.456 E1.51154
M73 Q6 S100
G1 X102.965 Y110.990 E0.01675
G1 X136.485 Y144.510 E1.48784
M73 P6 R99
G1 X135.951 Y144.510 E0.01675
G1 X102.965 Y111.524 E1.46415
G1 X102.965 Y112.058 E0.01675
G1 X135.417 Y144.510 E1.44046
G1 X134.883 Y144.510 E0.01675
G1 X102.965 Y112.592 E1.41676
G1 X102.965 Y113.125 E0.01675
G1 X134.350 Y144.510 E1.39307
G1 X133.816 Y144.510 E0.01675
G1 X102.965 Y113.659 E1.36937
G1 X102.965 Y114.193 E0.01675
G1 X133.282 Y144.510 E1.34568
G1 X132.748 Y144.510 E0.01675
G1 X102.965 Y114.727 E1.32198
G1 X102.965 Y115.261 E0.01675
G1 X132.214 Y144.510 E1.29829
G1 X131.681 Y144.510 E0.01675
G1 X102.965 Y115.794 E1.27460
G1 X102.965 Y116.328 E0.01675
G1 X131.147 Y144.510 E1.25090
G1 X130.613 Y144.510 E0.01675
G1 X102.965 Y116.862 E1.22721
G1 X102.965 Y117.396 E0.01675
G1 X130.079 Y144.510 E1.20351
G1 X129.545 Y144.510 E0.01675
G1 X102.965 Y117.930 E1.17982
G1 X102.965 Y118.464 E0.01675
G1 X129.011 Y144.510 E1.15612
G1 X128.478 Y144.510 E0.01675
G1 X102.965 Y118.997 E1.13243
G1 X102.965 Y119.531 E0.01675
G1 X127.944 Y144.510 E1.10874
G1 X127.410 Y144.510 E0.01675
G1 X102.965 Y120.065 E1.08504
G1 X102.965 Y120.599 E0.01675
G1 X126.876 Y144.510 E1.06135
G1 X126.342 Y144.510 E0.01675
G1 X102.965 Y121.133 E1.03765
G1 X102.965 Y121.666 E0.01675
G1 X125.809 Y144.510 E1.01396
G1 X125.275 Y144.510 E0.01675
G1 X102.965 Y122.200 E0.99027
G1 X102.965 Y122.734 E0.01675
G1 X124.741 Y144.510 E0.96657
G1 X124.207 Y144.510 E0.01675
G1 X102.965 Y123.268 E0.94288
G1 X102.965 Y123.802 E0.01675
G1 X123.673 Y144.510 E0.91918
G1 X123.140 Y144.510 E0.01675
G1 X102.965 Y124.335 E0.89549
G1 X102.965 Y124.869 E0.01675
G1 X122.606 Y144.510 E0.87179
G1 X122.072 Y144.510 E0.01675
G1 X102.965 Y125.403 E0.84810
G1 X102.965 Y125.937 E0.01675
G1 X121.538 Y144.510 E0.82441
G1 X121.004 Y144.510 E0.01675
G1 X102.965 Y126.471 E0.80071
G1 X102.965 Y127.005 E0.01675
G1 X120.470 Y144.510 E0.77702
G1 X119.937 Y144.510 E0.01675
G1 X102.965 Y127.538 E0.75332
G1 X102.965 Y128.072 E0.01675
G1 X119.403 Y144.510 E0.72963
G1 X118.869 Y144.510 E0.01675
G1 X102.965 Y128.606 E0.70593
M73 Q7 S99
G1 X102.965 Y129.140 E0.01675
G1 X118.335 Y144.510 E0.68224
G1 X117.801 Y144.510 E0.01675
G1 X102.965 Y129.674 E0.65855
M73 P7 R98
G1 X102.965 Y130.207 E0.01675
G1 X117.268 Y144.510 E0.63485
G1 X116.734 Y144.510 E0.01675
G1 X102.965 Y130.741 E0.61116
G1 X102.965 Y131.275 E0.01675
G1 X116.200 Y144.510 E0.58746
G1 X115.666 Y144.510 E0.01675
G1 X102.965 Y131.809 E0.56377
G1 X102.965 Y132.343 E0.01675
G1 X115.132 Y144.510 E0.54007
G1 X114.599 Y144.510 E0.01675
G1 X102.965 Y132.876 E0.51638
G1 X102.965 Y133.410 E0.01675
G1 X114.065 Y144.510 E0.49269
G1 X113.531 Y144.510 E0.01675
G1 X102.965 Y133.944 E0.46899
G1 X102.965 Y134.478 E0.01675
G1 X112.997 Y144.510 E0.44530
G1 X112.463 Y144.510 E0.01675
G1 X102.965 Y135.012 E0.42160
G1 X102.965 Y135.546 E0.01675
G1 X111.929 Y144.510 E0.39791
G1 X111.396 Y144.510 E0.01675
G1 X102.965 Y136.079 E0.37421
G1 X102.965 Y136.613 E0.01675
G1 X110.862 Y144.510 E0.35052
G1 X110.328 Y144.510 E0.01675
G1 X102.965 Y137.147 E0.32683
G1 X102.965 Y137.681 E0.01675
G1 X109.794 Y144.510 E0.30313
