; generated by PrusaSlicer 2.0.0+win64 on 2019-07-02 at 15:38:05

; 

; external perimeters extrusion width = 0.45mm
; perimeters extrusion width = 0.45mm
; infill extrusion width = 0.45mm
; solid infill extrusion width = 0.45mm
; top infill extrusion width = 0.40mm
; first layer extrusion width = 0.42mm

M73 P0 R155
M73 Q0 S156
M201 X1000 Y1000 Z1000 E5000 ; sets maximum accelerations, mm/sec^2
M203 X200 Y200 Z12 E120 ; sets maximum feedrates, mm/sec
M204 P1250 R1250 T1250 ; sets acceleration (P, T) and retract acceleration (R), mm/sec^2
M205 X8.00 Y8.00 Z0.40 E1.50 ; sets the jerk limits, mm/sec
M205 S0 T0 ; sets the minimum extruding and travel feed rate, mm/sec
M107
M115 U3.7.1 ; tell printer latest fw version
G90 ; use absolute coordinates
M83 ; extruder relative mode
M104 S215 ; set extruder temp
M140 S60 ; set bed temp
M190 S60 ; wait for bed temp
M109 S215 ; wait for extruder temp
G28 W ; home all without mesh bed level
G80 ; mesh bed leveling
G1 Y-3.0 F1000.0 ; go outside print area
G92 E0.0
G1 X60.0 E9.0 F1000.0 ; intro line
M73 Q0 S156
M73 P0 R155
G1 X100.0 E12.5 F1000.0 ; intro line
G92 E0.0
M221 S95
M900 K30 ; Filament gcode
G21 ; set units to millimeters
G90 ; use absolute coordinates
M83 ; use relative distances for extrusion
;BEFORE_LAYER_CHANGE
G92 E0.0
;0.2


G1 E-0.80000 F2100.00000
G1 Z0.600 F10800.000
;AFTER_LAYER_CHANGE
;0.2
G1 X88.786 Y44.590
G1 Z0.200
G1 E0.80000 F2100.00000
M204 S1000
G1 F1200
G1 X89.129 Y44.136 E0.01783
G1 X89.573 Y43.788 E0.01771
G1 X90.092 Y43.565 E0.01771
G1 X90.655 Y43.482 E0.01783
G1 X159.314 Y43.481 E2.15275
G1 X160.144 Y43.646 E0.02653
G1 X160.846 Y44.111 E0.02642
G1 X161.321 Y44.807 E0.02642
G1 X161.498 Y45.635 E0.02653
G1 X161.499 Y164.334 E3.72172
G1 X161.426 Y164.890 E0.01760
G1 X161.214 Y165.410 E0.01760
G1 X160.871 Y165.864 E0.01783
G1 X160.423 Y166.214 E0.01783
G1 X159.897 Y166.438 E0.01794
G1 X159.334 Y166.518 E0.01783
G1 X90.683 Y166.519 E2.15252
G1 X90.126 Y166.445 E0.01760
G1 X89.610 Y166.234 E0.01749
G1 X89.154 Y165.889 E0.01794
G1 X88.802 Y165.437 E0.01794
G1 X88.580 Y164.910 E0.01794
G1 X88.502 Y164.343 E0.01794
G1 X88.501 Y45.666 E3.72103
G1 X88.574 Y45.110 E0.01760
G1 X88.764 Y44.646 E0.01572
G1 F8640
G1 X89.129 Y44.136 E-0.14471
G1 X89.573 Y43.788 E-0.13044
G1 X90.092 Y43.565 E-0.13044
G1 X90.655 Y43.482 E-0.13128
G1 X91.621 Y43.482 E-0.22313
G1 E-0.04000 F2100.00000
G1 Z0.800 F10800.000
G1 X128.587 Y46.257
G1 Z0.200
G1 E0.80000 F2100.00000
G1 F1200
G1 X158.723 Y46.257 E0.94489
G1 X158.723 Y163.743 E3.68369
G1 X128.587 Y163.743 E0.94489
G1 X128.587 Y46.317 E3.68180
G1 X128.210 Y45.880 F10800.000
G1 F1200
G1 X159.100 Y45.880 E0.96853
G1 X159.100 Y164.120 E3.70733
G1 X128.210 Y164.120 E0.96853
G1 X128.210 Y45.940 E3.70545
G1 X128.572 Y46.050 F10800.000
G1 F8640
G1 X131.501 Y45.934 E-0.76000
G1 E-0.04000 F2100.00000
G1 Z0.800 F10800.000
G1 X158.610 Y47.133
G1 Z0.200
G1 E0.80000 F2100.00000
G1 F1200
G1 X158.017 Y46.540 E0.02630
G1 X157.483 Y46.540 E0.01673
G1 X158.440 Y47.497 E0.04244
G1 X158.440 Y48.030 E0.01673
G1 X156.950 Y46.540 E0.06611
G1 X156.416 Y46.540 E0.01673
G1 X158.440 Y48.564 E0.08977
G1 X158.440 Y49.097 E0.01673
G1 X155.883 Y46.540 E0.11344
G1 X155.349 Y46.540 E0.01673
G1 X158.440 Y49.631 E0.13710
G1 X158.440 Y50.164 E0.01673
G1 X154.816 Y46.540 E0.16077
G1 X154.282 Y46.540 E0.01673
G1 X158.440 Y50.698 E0.18444
G1 X158.440 Y51.231 E0.01673
G1 X153.749 Y46.540 E0.20810
G1 X153.215 Y46.540 E0.01673
G1 X158.440 Y51.765 E0.23177
G1 X158.440 Y52.298 E0.01673
G1 X152.682 Y46.540 E0.25543
G1 X152.148 Y46.540 E0.01673
G1 X158.440 Y52.832 E0.27910
G1 X158.440 Y53.365 E0.01673
G1 X151.615 Y46.540 E0.30277
G1 X151.081 Y46.540 E0.01673
G1 X158.440 Y53.899 E0.32643
G1 X158.440 Y54.432 E0.01673
G1 X150.548 Y46.540 E0.35010
G1 X150.014 Y46.540 E0.01673
G1 X158.440 Y54.966 E0.37376
G1 X158.440 Y55.499 E0.01673
G1 X149.481 Y46.540 E0.39743
M73 Q0 S155
G1 X148.947 Y46.540 E0.01673
G1 X158.440 Y56.033 E0.42110
M73 P0 R154
G1 X158.440 Y56.566 E0.01673
G1 X148.414 Y46.540 E0.44476
G1 X147.880 Y46.540 E0.01673
G1 X158.440 Y57.100 E0.46843
G1 X158.440 Y57.633 E0.01673
G1 X147.347 Y46.540 E0.49209
G1 X146.813 Y46.540 E0.01673
G1 X158.440 Y58.167 E0.51576
G1 X158.440 Y58.700 E0.01673
G1 X146.280 Y46.540 E0.53943
G1 X145.747 Y46.540 E0.01673
G1 X158.440 Y59.233 E0.56309
G1 X158.440 Y59.767 E0.01673
G1 X145.213 Y46.540 E0.58676
G1 X144.680 Y46.540 E0.01673
G1 X158.440 Y60.300 E0.61042
G1 X158.440 Y60.834 E0.01673
G1 X144.146 Y46.540 E0.63409
G1 X143.613 Y46.540 E0.01673
G1 X158.440 Y61.367 E0.65776
G1 X158.440 Y61.901 E0.01673
G1 X143.079 Y46.540 E0.68142
G1 X142.546 Y46.540 E0.01673
G1 X158.440 Y62.434 E0.70509
G1 X158.440 Y62.968 E0.01673
G1 X142.012 Y46.540 E0.72875
G1 X141.479 Y46.540 E0.01673
G1 X158.440 Y63.501 E0.75242
G1 X158.440 Y64.035 E0.01673
G1 X140.945 Y46.540 E0.77609
G1 X140.412 Y46.540 E0.01673
G1 X158.440 Y64.568 E0.79975
G1 X158.440 Y65.102 E0.01673
G1 X139.878 Y46.540 E0.82342
G1 X139.345 Y46.540 E0.01673
G1 X158.440 Y65.635 E0.84708
G1 X158.440 Y66.169 E0.01673
G1 X138.811 Y46.540 E0.87075
G1 X138.278 Y46.540 E0.01673
G1 X158.440 Y66.702 E0.89442
G1 X158.440 Y67.236 E0.01673
G1 X137.744 Y46.540 E0.91808
G1 X137.211 Y46.540 E0.01673
G1 X158.440 Y67.769 E0.94175
G1 X158.440 Y68.303 E0.01673
G1 X136.677 Y46.540 E0.96541
G1 X136.144 Y46.540 E0.01673
G1 X158.440 Y68.836 E0.98908
G1 X158.440 Y69.370 E0.01673
G1 X135.610 Y46.540 E1.01275
G1 X135.077 Y46.540 E0.01673
G1 X158.440 Y69.903 E1.03641
G1 X158.440 Y70.437 E0.01673
G1 X134.543 Y46.540 E1.06008
G1 X134.010 Y46.540 E0.01673
G1 X158.440 Y70.970 E1.08374
G1 X158.440 Y71.504 E0.01673
G1 X133.476 Y46.540 E1.10741
G1 X132.943 Y46.540 E0.01673
G1 X158.440 Y72.037 E1.13108
G1 X158.440 Y72.571 E0.01673
G1 X132.409 Y46.540 E1.15474
G1 X131.876 Y46.540 E0.01673
G1 X158.440 Y73.104 E1.17841
G1 X158.440 Y73.638 E0.01673
G1 X131.342 Y46.540 E1.20207
G1 X130.809 Y46.540 E0.01673
G1 X158.440 Y74.171 E1.22574
G1 X158.440 Y74.705 E0.01673
G1 X130.275 Y46.540 E1.24941
G1 X129.742 Y46.540 E0.01673
G1 X158.440 Y75.238 E1.27307
G1 X158.440 Y75.772 E0.01673
G1 X129.208 Y46.540 E1.29674
G1 X128.870 Y46.540 E0.01061
G1 X128.870 Y46.735 E0.00612
G1 X158.440 Y76.305 E1.31175
G1 X158.440 Y76.839 E0.01673
G1 X128.870 Y47.269 E1.31175
G1 X128.870 Y47.802 E0.01673
G1 X158.440 Y77.372 E1.31175
G1 X158.440 Y77.906 E0.01673
G1 X128.870 Y48.336 E1.31175
M73 Q1 S154
M73 P1 R153
G1 X128.870 Y48.869 E0.01673
G1 X158.440 Y78.439 E1.31175
G1 X158.440 Y78.973 E0.01673
G1 X128.870 Y49.403 E1.31175
G1 X128.870 Y49.936 E0.01673
G1 X158.440 Y79.506 E1.31175
G1 X158.440 Y80.040 E0.01673
G1 X128.870 Y50.470 E1.31175
G1 X128.870 Y51.003 E0.01673
G1 X158.440 Y80.573 E1.31175
G1 X158.440 Y81.107 E0.01673
G1 X128.870 Y51.537 E1.31175
G1 X128.870 Y52.070 E0.01673
G1 X158.440 Y81.640 E1.31175
G1 X158.440 Y82.174 E0.01673
G1 X128.870 Y52.604 E1.31175
G1 X128.870 Y53.137 E0.01673
G1 X158.440 Y82.707 E1.31175
G1 X158.440 Y83.241 E0.01673
G1 X128.870 Y53.671 E1.31175
G1 X128.870 Y54.204 E0.01673
G1 X158.440 Y83.774 E1.31175
G1 X158.440 Y84.308 E0.01673
G1 X128.870 Y54.737 E1.31175
G1 X128.870 Y55.271 E0.01673
G1 X158.440 Y84.841 E1.31175
G1 X158.440 Y85.375 E0.01673
G1 X128.870 Y55.804 E1.31175
G1 X128.870 Y56.338 E0.01673
G1 X158.440 Y85.908 E1.31175
G1 X158.440 Y86.442 E0.01673
G1 X128.870 Y56.871 E1.31175
G1 X128.870 Y57.405 E0.01673
G1 X158.440 Y86.975 E1.31175
G1 X158.440 Y87.509 E0.01673
G1 X128.870 Y57.938 E1.31175
G1 X128.870 Y58.472 E0.01673
G1 X158.440 Y88.042 E1.31175
G1 X158.440 Y88.576 E0.01673
G1 X128.870 Y59.005 E1.31175
G1 X128.870 Y59.539 E0.01673
G1 X158.440 Y89.109 E1.31175
G1 X158.440 Y89.643 E0.01673
G1 X128.870 Y60.072 E1.31175
G1 X128.870 Y60.606 E0.01673
G1 X158.440 Y90.176 E1.31175
G1 X158.440 Y90.710 E0.01673
G1 X128.870 Y61.139 E1.31175
G1 X128.870 Y61.673 E0.01673
G1 X158.440 Y91.243 E1.31175
G1 X158.440 Y91.777 E0.01673
G1 X128.870 Y62.206 E1.31175
G1 X128.870 Y62.740 E0.01673
G1 X158.440 Y92.310 E1.31175
G1 X158.440 Y92.844 E0.01673
G1 X128.870 Y63.273 E1.31175
G1 X128.870 Y63.807 E0.01673
G1 X158.440 Y93.377 E1.31175
M73 Q2 S153
M73 P2 R152
G1 X158.440 Y93.911 E0.01673
G1 X128.870 Y64.340 E1.31175
G1 X128.870 Y64.874 E0.01673
G1 X158.440 Y94.444 E1.31175
G1 X158.440 Y94.978 E0.01673
G1 X128.870 Y65.407 E1.31175
G1 X128.870 Y65.941 E0.01673
G1 X158.440 Y95.511 E1.31175
G1 X158.440 Y96.045 E0.01673
G1 X128.870 Y66.474 E1.31175
G1 X128.870 Y67.008 E0.01673
G1 X158.440 Y96.578 E1.31175
G1 X158.440 Y97.112 E0.01673
G1 X128.870 Y67.541 E1.31175
G1 X128.870 Y68.075 E0.01673
G1 X158.440 Y97.645 E1.31175
G1 X158.440 Y98.179 E0.01673
G1 X128.870 Y68.608 E1.31175
G1 X128.870 Y69.142 E0.01673
G1 X158.440 Y98.712 E1.31175
G1 X158.440 Y99.246 E0.01673
G1 X128.870 Y69.675 E1.31175
G1 X128.870 Y70.209 E0.01673
G1 X158.440 Y99.779 E1.31175
G1 X158.440 Y100.313 E0.01673
G1 X128.870 Y70.742 E1.31175
G1 X128.870 Y71.276 E0.01673
G1 X158.440 Y100.846 E1.31175
G1 X158.440 Y101.380 E0.01673
G1 X128.870 Y71.809 E1.31175
G1 X128.870 Y72.343 E0.01673
G1 X158.440 Y101.913 E1.31175
G1 X158.440 Y102.447 E0.01673
G1 X128.870 Y72.876 E1.31175
G1 X128.870 Y73.410 E0.01673
G1 X158.440 Y102.980 E1.31175
G1 X158.440 Y103.514 E0.01673
G1 X128.870 Y73.943 E1.31175
G1 X128.870 Y74.477 E0.01673
G1 X158.440 Y104.047 E1.31175
G1 X158.440 Y104.581 E0.01673
G1 X128.870 Y75.010 E1.31175
G1 X128.870 Y75.544 E0.01673
G1 X158.440 Y105.114 E1.31175
G1 X158.440 Y105.648 E0.01673
G1 X128.870 Y76.077 E1.31175
G1 X128.870 Y76.611 E0.01673
G1 X158.440 Y106.181 E1.31175
G1 X158.440 Y106.715 E0.01673
G1 X128.870 Y77.144 E1.31175
G1 X128.870 Y77.678 E0.01673
G1 X158.440 Y107.248 E1.31175
G1 X158.440 Y107.782 E0.01673
G1 X128.870 Y78.211 E1.31175
G1 X128.870 Y78.745 E0.01673
G1 X158.440 Y108.315 E1.31175
G1 X158.440 Y108.849 E0.01673
G1 X128.870 Y79.278 E1.31175
M73 Q2 S152
M73 P2 R151
G1 X128.870 Y79.812 E0.01673
G1 X158.440 Y109.382 E1.31175
G1 X158.440 Y109.916 E0.01673
G1 X128.870 Y80.345 E1.31175
G1 X128.870 Y80.879 E0.01673
G1 X158.440 Y110.449 E1.31175
G1 X158.440 Y110.983 E0.01673
G1 X128.870 Y81.412 E1.31175
G1 X128.870 Y81.946 E0.01673
G1 X158.440 Y111.516 E1.31175
G1 X158.440 Y112.050 E0.01673
G1 X128.870 Y82.479 E1.31175
G1 X128.870 Y83.013 E0.01673
G1 X158.440 Y112.583 E1.31175
G1 X158.440 Y113.116 E0.01673
G1 X128.870 Y83.546 E1.31175
G1 X128.870 Y84.080 E0.01673
G1 X158.440 Y113.650 E1.31175
G1 X158.440 Y114.183 E0.01673
G1 X128.870 Y84.613 E1.31175
G1 X128.870 Y85.147 E0.01673
G1 X158.440 Y114.717 E1.31175
G1 X158.440 Y115.250 E0.01673
G1 X128.870 Y85.680 E1.31175
G1 X128.870 Y86.214 E0.01673
G1 X158.440 Y115.784 E1.31175
G1 X158.440 Y116.317 E0.01673
G1 X128.870 Y86.747 E1.31175
G1 X128.870 Y87.281 E0.01673
G1 X158.440 Y116.851 E1.31175
G1 X158.440 Y117.384 E0.01673
G1 X128.870 Y87.814 E1.31175
G1 X128.870 Y88.348 E0.01673
G1 X158.440 Y117.918 E1.31175
G1 X158.440 Y118.451 E0.01673
G1 X128.870 Y88.881 E1.31175
G1 X128.870 Y89.415 E0.01673
G1 X158.440 Y118.985 E1.31175
G1 X158.440 Y119.518 E0.01673
G1 X128.870 Y89.948 E1.31175
G1 X128.870 Y90.482 E0.01673
G1 X158.440 Y120.052 E1.31175
G1 X158.440 Y120.585 E0.01673
G1 X128.870 Y91.015 E1.31175
G1 X128.870 Y91.549 E0.01673
G1 X158.440 Y121.119 E1.31175
G1 X158.440 Y121.652 E0.01673
G1 X128.870 Y92.082 E1.31175
G1 X128.870 Y92.616 E0.01673
G1 X158.440 Y122.186 E1.31175
G1 X158.440 Y122.719 E0.01673
G1 X128.870 Y93.149 E1.31175
G1 X128.870 Y93.683 E0.01673
G1 X158.440 Y123.253 E1.31175
G1 X158.440 Y123.786 E0.01673
G1 X128.870 Y94.216 E1.31175
G1 X128.870 Y94.750 E0.01673
G1 X158.440 Y124.320 E1.31175
M73 Q3 S151
M73 P3 R150
G1 X158.440 Y124.853 E0.01673
G1 X128.870 Y95.283 E1.31175
G1 X128.870 Y95.817 E0.01673
G1 X158.440 Y125.387 E1.31175
G1 X158.440 Y125.920 E0.01673
G1 X128.870 Y96.350 E1.31175
G1 X128.870 Y96.884 E0.01673
G1 X158.440 Y126.454 E1.31175
G1 X158.440 Y126.987 E0.01673
G1 X128.870 Y97.417 E1.31175
G1 X128.870 Y97.951 E0.01673
G1 X158.440 Y127.521 E1.31175
G1 X158.440 Y128.054 E0.01673
G1 X128.870 Y98.484 E1.31175
G1 X128.870 Y99.018 E0.01673
G1 X158.440 Y128.588 E1.31175
G1 X158.440 Y129.121 E0.01673
G1 X128.870 Y99.551 E1.31175
G1 X128.870 Y100.085 E0.01673
G1 X158.440 Y129.655 E1.31175
G1 X158.440 Y130.188 E0.01673
G1 X128.870 Y100.618 E1.31175
G1 X128.870 Y101.152 E0.01673
G1 X158.440 Y130.722 E1.31175
G1 X158.440 Y131.255 E0.01673
G1 X128.870 Y101.685 E1.31175
G1 X128.870 Y102.219 E0.01673
G1 X158.440 Y131.789 E1.31175
G1 X158.440 Y132.322 E0.01673
G1 X128.870 Y102.752 E1.31175
G1 X128.870 Y103.286 E0.01673
G1 X158.440 Y132.856 E1.31175
G1 X158.440 Y133.389 E0.01673
G1 X128.870 Y103.819 E1.31175
G1 X128.870 Y104.353 E0.01673
G1 X158.440 Y133.923 E1.31175
G1 X158.440 Y134.456 E0.01673
G1 X128.870 Y104.886 E1.31175
G1 X128.870 Y105.420 E0.01673
G1 X158.440 Y134.990 E1.31175
G1 X158.440 Y135.523 E0.01673
G1 X128.870 Y105.953 E1.31175
G1 X128.870 Y106.487 E0.01673
G1 X158.440 Y136.057 E1.31175
G1 X158.440 Y136.590 E0.01673
G1 X128.870 Y107.020 E1.31175
G1 X128.870 Y107.554 E0.01673
G1 X158.440 Y137.124 E1.31175
G1 X158.440 Y137.657 E0.01673
G1 X128.870 Y108.087 E1.31175
G1 X128.870 Y108.620 E0.01673
G1 X158.440 Y138.191 E1.31175
G1 X158.440 Y138.724 E0.01673
G1 X128.870 Y109.154 E1.31175
G1 X128.870 Y109.687 E0.01673
G1 X158.440 Y139.258 E1.31175
G1 X158.440 Y139.791 E0.01673
G1 X128.870 Y110.221 E1.31175
M73 Q3 S150
M73 P3 R149
G1 X128.870 Y110.754 E0.01673
G1 X158.440 Y140.325 E1.31175
G1 X158.440 Y140.858 E0.01673
G1 X128.870 Y111.288 E1.31175
G1 X128.870 Y111.821 E0.01673
G1 X158.440 Y141.392 E1.31175
G1 X158.440 Y141.925 E0.01673
G1 X128.870 Y112.355 E1.31175
G1 X128.870 Y112.888 E0.01673
G1 X158.440 Y142.459 E1.31175
G1 X158.440 Y142.992 E0.01673
G1 X128.870 Y113.422 E1.31175
G1 X128.870 Y113.955 E0.01673
G1 X158.440 Y143.526 E1.31175
G1 X158.440 Y144.059 E0.01673
G1 X128.870 Y114.489 E1.31175
G1 X128.870 Y115.022 E0.01673
G1 X158.440 Y144.593 E1.31175
G1 X158.440 Y145.126 E0.01673
G1 X128.870 Y115.556 E1.31175
G1 X128.870 Y116.089 E0.01673
G1 X158.440 Y145.660 E1.31175
G1 X158.440 Y146.193 E0.01673
G1 X128.870 Y116.623 E1.31175
G1 X128.870 Y117.156 E0.01673
G1 X158.440 Y146.727 E1.31175
G1 X158.440 Y147.260 E0.01673
G1 X128.870 Y117.690 E1.31175
G1 X128.870 Y118.223 E0.01673
G1 X158.440 Y147.794 E1.31175
G1 X158.440 Y148.327 E0.01673
G1 X128.870 Y118.757 E1.31175
G1 X128.870 Y119.290 E0.01673
G1 X158.440 Y148.861 E1.31175
G1 X158.440 Y149.394 E0.01673
G1 X128.870 Y119.824 E1.31175
G1 X128.870 Y120.357 E0.01673
G1 X158.440 Y149.928 E1.31175
G1 X158.440 Y150.461 E0.01673
G1 X128.870 Y120.891 E1.31175
G1 X128.870 Y121.424 E0.01673
G1 X158.440 Y150.995 E1.31175
G1 X158.440 Y151.528 E0.01673
G1 X128.870 Y121.958 E1.31175
G1 X128.870 Y122.491 E0.01673
G1 X158.440 Y152.062 E1.31175
G1 X158.440 Y152.595 E0.01673
G1 X128.870 Y123.025 E1.31175
G1 X128.870 Y123.558 E0.01673
G1 X158.440 Y153.129 E1.31175
G1 X158.440 Y153.662 E0.01673
G1 X128.870 Y124.092 E1.31175
G1 X128.870 Y124.625 E0.01673
G1 X158.440 Y154.196 E1.31175
G1 X158.440 Y154.729 E0.01673
G1 X128.870 Y125.159 E1.31175
G1 X128.870 Y125.692 E0.01673
G1 X158.440 Y155.263 E1.31175
M73 Q4 S149
M73 P4 R148
G1 X158.440 Y155.796 E0.01673
G1 X128.870 Y126.226 E1.31175
G1 X128.870 Y126.759 E0.01673
G1 X158.440 Y156.330 E1.31175
G1 X158.440 Y156.863 E0.01673
G1 X128.870 Y127.293 E1.31175
G1 X128.870 Y127.826 E0.01673
G1 X158.440 Y157.397 E1.31175
G1 X158.440 Y157.930 E0.01673
G1 X128.870 Y128.360 E1.31175
G1 X128.870 Y128.893 E0.01673
G1 X158.440 Y158.464 E1.31175
G1 X158.440 Y158.997 E0.01673
G1 X128.870 Y129.427 E1.31175
G1 X128.870 Y129.960 E0.01673
G1 X158.440 Y159.531 E1.31175
G1 X158.440 Y160.064 E0.01673
G1 X128.870 Y130.494 E1.31175
G1 X128.870 Y131.027 E0.01673
G1 X158.440 Y160.598 E1.31175
G1 X158.440 Y161.131 E0.01673
G1 X128.870 Y131.561 E1.31175
G1 X128.870 Y132.094 E0.01673
G1 X158.440 Y161.665 E1.31175
G1 X158.440 Y162.198 E0.01673
G1 X128.870 Y132.628 E1.31175
G1 X128.870 Y133.161 E0.01673
G1 X158.440 Y162.732 E1.31175
G1 X158.440 Y163.265 E0.01673
G1 X128.870 Y133.695 E1.31175
G1 X128.870 Y134.228 E0.01673
